!!!OTL: "Sandmaennchen" DIE BLUEMELEIN SIE SCHLAFEN
!!!ARE: Europa, Mitteleuropa, Deutschland,Niederrhein
!!!SCT: Z1355
!!!YEM: Copyright 1995, estate of Helmut Schaffrath.
**kern
*ICvox
*Ivox
*M4/4
*k[f#]
*G:
{4d
=1
4.g
8a
4b
4a
=2
2g
4f#
4g
=3
8a
8b
4cc
8b
8a
4g
=4
2a
4r}
{4d
=5
4.g
8a
4b
4a
=6
2g
4f#
4g
=7
8a
8b
4cc
8b
8a
4g
=8
2a
4r}
{8b
8cc
=9
4dd
4b
4cc
4dd
=10
4.ee
8dd
4cc
8a
8b
=11
4cc
4cc
4b
4dd
=12
2.a
4r}
=13
{4.dd
8b
2a
=14
4.b
8a
8g
8a
8b
8cc
=15
4dd
8g
8a
4b
4a
=16
2g
4r}
{8b
8cc
=17
4dd
4b
4cc
4dd
=18
4.ee
8dd
4cc
8a
8b
=19
4cc
4cc
4b
4dd
=20
2.a
4r}
=21
{4.dd
8b
2a
=22
4.b
8a
8g
8a
8b
8cc
=23
4dd
8g
8a
4b
4a
=24
2g
4r}
==
!!!AGN: Kinder - Lied
!!!ONB: ESAC (Essen Associative Code) Database: ZUCCAL
!!!AMT: simple quadruple
!!!AIN: vox
!!!EED: Helmut Schaffrath
!!!EEV: 1.0
*-
